X: 1
T: Hanter Dro
M: 3/2
L: 1/8
R: three-two
K: Emin
|: E2 FG E2 D2 E4 | G2 FG A2 B2 G2 E2 | E2 FG E2 D2 E4 | G2 FG A2 G2 F4 :|
|: E2 FG A2 B2 G2 E2 | G2 FE D2 E2 F4 | E2 FG A2 B2 G2 E2 | G2 FE F2 G2 E4 :|
